workspaces/osm/styles/symbols/level_crossing2.svg

<svg version="1.1" viewBox="0 0 11 11" xmlns="http://www.w3.org/2000/svg"><path id="a" d="m0.5 0.5h2l3 3 3-3h2v2l-3 3 3 3v2h-2l-3-3-3 3h-2v-2l3-3-3-3v-2z" fill="#fff"/><path id="b" d="m1 1v1l3.5 3.5-3.5 3.5v1h1l3.5-3.5 3.5 3.5h1v-1l-3.5-3.5 3.5-3.5v-1h-1l-3.5 3.5-3.5-3.5h-1z" fill="#4d4d4d"/></svg>

<?xml version="1.0" encoding="UTF-8"?>
<svg xmlns="http://www.w3.org/2000/svg" xmlns:xlink="http://www.w3.org/1999/xlink" width="100%" height="100%" viewBox="0 0 11 11">
  <path
    fill="#ffffff"
    d="m 0.5,0.5 2,0 3,3 3,-3 2,0 0,2 -3,3 3,3 0,2 -2,0 -3,-3 -3,3 L 0.5,10.5 0.5,8.5 l 3,-3 -3,-3 z"
    id="halo" />
  <path
    fill="#4d4d4d"
    d="M 1,1 1,2 4.5,5.5 1,9 1,10 2,10 5.5,6.5 9,10 10,10 10,9 6.5,5.5 10,2 10,1 9,1 5.5,4.5 2,1 z"
    id="crossing" />
</svg>
